svgs/duotone/fort.svg

<svg xmlns="http://www.w3.org/2000/svg" viewBox="0 0 640 512"><!--! Font Awesome Pro 6.6.0 by @fontawesome - https://fontawesome.com License - https://fontawesome.com/license (Commercial License) Copyright 2024 Fonticons, Inc. --><defs><style>.fa-secondary{opacity:.4}</style></defs><path class="fa-secondary" d="M0 16L0 96l0 16 0 64c0 20.9 13.4 38.7 32 45.3c5 1.8 10.4 2.7 16 2.7l160 0c26.5 0 48-21.5 48-48l0-16 0-48 0-16 0-80c0-8.8-7.2-16-16-16L208 0c-8.8 0-16 7.2-16 16l0 48-32 0 0-48c0-8.8-7.2-16-16-16L112 0c-8.8 0-16 7.2-16 16l0 48L64 64l0-48C64 7.2 56.8 0 48 0L16 0C7.2 0 0 7.2 0 16zm384 0l0 80 0 16 0 48 0 16c0 26.5 21.5 48 48 48l160 0c5.6 0 11-1 16-2.7c18.6-6.6 32-24.4 32-45.3l0-64 0-16 0-80c0-8.8-7.2-16-16-16L592 0c-8.8 0-16 7.2-16 16l0 48-32 0 0-48c0-8.8-7.2-16-16-16L496 0c-8.8 0-16 7.2-16 16l0 48-32 0 0-48c0-8.8-7.2-16-16-16L400 0c-8.8 0-16 7.2-16 16z"/><path class="fa-primary" d="M384 160l-128 0 0 16c0 26.5-21.5 48-48 48L48 224c-5.6 0-11-1-16-2.7L32 464c0 26.5 21.5 48 48 48l176 0 0-128c0-35.3 28.7-64 64-64s64 28.7 64 64l0 128 176 0c26.5 0 48-21.5 48-48l0-242.7c-5 1.8-10.4 2.7-16 2.7l-160 0c-26.5 0-48-21.5-48-48l0-16z"/></svg>

<svg xmlns="http://www.w3.org/2000/svg" viewBox="0 0 640 512"><!--! Font Awesome Pro 6.4.0 by @fontawesome - https://fontawesome.com License - https://fontawesome.com/license (Commercial License) Copyright 2023 Fonticons, Inc. --><defs><style>.fa-secondary{opacity:.4}</style></defs><path class="fa-primary" d="M384 160H256v16c0 26.5-21.5 48-48 48H48c-5.6 0-11-1-16-2.7V464c0 26.5 21.5 48 48 48H256V384c0-35.3 28.7-64 64-64s64 28.7 64 64V512H560c26.5 0 48-21.5 48-48V221.3c-5 1.8-10.4 2.7-16 2.7H432c-26.5 0-48-21.5-48-48V160z"/><path class="fa-secondary" d="M16 0C7.2 0 0 7.2 0 16V96v16 64c0 26.5 21.5 48 48 48H208c26.5 0 48-21.5 48-48V112 96 16c0-8.8-7.2-16-16-16H208c-8.8 0-16 7.2-16 16V64H160V16c0-8.8-7.2-16-16-16H112c-8.8 0-16 7.2-16 16V64H64V16C64 7.2 56.8 0 48 0H16zM448 64V16c0-8.8-7.2-16-16-16H400c-8.8 0-16 7.2-16 16V96v16 64c0 26.5 21.5 48 48 48H592c26.5 0 48-21.5 48-48V112 96 16c0-8.8-7.2-16-16-16H592c-8.8 0-16 7.2-16 16V64H544V16c0-8.8-7.2-16-16-16H496c-8.8 0-16 7.2-16 16V64H448z"/></svg>
